X: 1672
T: Liverpool Hornpipe
C:trad Irish & English tune
B: australian traditional tunes wiki
M:4/4
L:1/8
R: Step Dance
Q: 1/4=100
K:D
V:1 
|:"D"FD FA df af|"G"gf ge "A7"dc BA|"G"GB GB "D"FA FA|"Em"ED EF "A7"GF ED|
"D"FD FA df af|"G"gf ge "A7"dc BA|"D"ff af "G"ba fe|"D"d2(3edc d3A:|
|:"D"f2ff "A7"ce ce|"Em"BA Be "A7"dc BA|"G"GB GB "D"FA FA|"Em"ED EF "A7"GF ED|
"D"FD FA df af|"G"gf ge "A7"dc BA|"D"fg af "G"ba fc|"D"d2(3edc d4:|
% abcbook-tune_id 6342d53a9594a16b30d6d4ec


% abcbook-boost 0
% abcbook-tablature 
% abcbook-transpose 
% abcbook-lastupdated 1665324377235
% abcbook-soundfonts 
% abcbook-repeats 1
% NFF Book 2014

